src/assets/Aeroplane.svg

<svg viewBox="0 0 24 24" fill="none" xmlns="http://www.w3.org/2000/svg">
  <path
    d="M23.0264 10.4761L2.89711 0.240878C2.56172 0.0631743 2.1755 -0.0193746 1.78808 0.00383397C1.40066 0.0270425 1.02972 0.154949 0.722909 0.371124C0.409567 0.595743 0.182064 0.904334 0.0726987 1.25309C-0.0366668 1.60184 -0.0223373 1.97303 0.113653 2.31397L3.47053 10.8343C3.50449 10.9192 3.56612 10.9928 3.64721 11.0451C3.7283 11.0975 3.82502 11.1261 3.92449 11.1273H12.5496C12.7976 11.1237 13.0379 11.2058 13.2219 11.3569C13.4059 11.5079 13.52 11.7168 13.5412 11.9413C13.5493 12.0599 13.5307 12.1786 13.4863 12.2903C13.442 12.402 13.3729 12.5043 13.2833 12.5907C13.1937 12.6772 13.0856 12.7461 12.9655 12.793C12.8455 12.84 12.7162 12.8642 12.5855 12.8639H3.92449C3.82502 12.8651 3.7283 12.8938 3.64721 12.9461C3.56612 12.9985 3.50449 13.072 3.47053 13.157L0.113653 21.6773C0.0129299 21.9398 -0.0174202 22.2203 0.0251231 22.4956C0.0676665 22.7708 0.181876 23.0329 0.358267 23.26C0.534658 23.4872 0.768141 23.6728 1.03933 23.8015C1.31052 23.9302 1.61158 23.9982 1.91753 24C2.24309 23.9987 2.56323 23.9241 2.84933 23.7829L23.0264 13.5152C23.322 13.3626 23.5679 13.1417 23.7389 12.8747C23.9099 12.6078 24 12.3045 24 11.9956C24 11.6868 23.9099 11.3834 23.7389 11.1165C23.5679 10.8496 23.322 10.6286 23.0264 10.4761V10.4761Z"
    fill="currentColor" />
</svg>

<svg xmlns="http://www.w3.org/2000/svg" fill="none" viewBox="0 0 24 24"><path fill="currentColor" d="M23.026 10.476 2.897.241A2.106 2.106 0 0 0 .723.37c-.313.225-.54.533-.65.882-.11.349-.095.72.04 1.061l3.358 8.52a.453.453 0 0 0 .176.211.523.523 0 0 0 .277.082h8.626c.248-.003.488.079.672.23.184.15.298.36.32.584a.796.796 0 0 1-.056.35.857.857 0 0 1-.203.3.96.96 0 0 1-.317.202c-.12.047-.25.071-.38.07H3.923a.524.524 0 0 0-.277.083.453.453 0 0 0-.176.211l-3.357 8.52c-.101.263-.131.543-.089.819.043.275.157.537.333.764.177.227.41.413.681.541a2.08 2.08 0 0 0 1.81-.018l20.177-10.268c.296-.152.542-.373.713-.64.17-.267.261-.57.261-.88 0-.308-.09-.612-.261-.878a1.848 1.848 0 0 0-.713-.64"/></svg>
